images/fb.svg

<svg width="25" height="25" viewBox="0 0 25 25" fill="none" xmlns="http://www.w3.org/2000/svg">
<path d="M21.3379 0H3.66211C1.64299 0 0 1.64299 0 3.66211V21.3379C0 23.357 1.64299 25 3.66211 25H11.0352V16.1621H8.10547V11.7676H11.0352V8.78906C11.0352 6.36578 13.0064 4.39453 15.4297 4.39453H19.873V8.78906H15.4297V11.7676H19.873L19.1406 16.1621H15.4297V25H21.3379C23.357 25 25 23.357 25 21.3379V3.66211C25 1.64299 23.357 0 21.3379 0Z" fill="#E53D03" fill-opacity="0.4"/>
</svg>

<svg xmlns="http://www.w3.org/2000/svg" width="25" height="25" fill="none"><path fill="#E53D03" fill-opacity=".4" d="M21.338 0H3.662A3.666 3.666 0 0 0 0 3.662v17.676A3.666 3.666 0 0 0 3.662 25h7.373v-8.838h-2.93v-4.394h2.93V8.789a4.4 4.4 0 0 1 4.395-4.394h4.443v4.394H15.43v2.979h4.443l-.732 4.394H15.43V25h5.908A3.666 3.666 0 0 0 25 21.338V3.662A3.666 3.666 0 0 0 21.338 0"/></svg>
